images/big-name.svg

<?xml version="1.0" encoding="UTF-8"?>
<svg width="320px" height="166px" viewBox="0 0 320 166" version="1.1" xmlns="http://www.w3.org/2000/svg" xmlns:xlink="http://www.w3.org/1999/xlink">
    <!-- Generator: Sketch 42 (36781) - http://www.bohemiancoding.com/sketch -->
    <title>Group 2</title>
    <desc>Created with Sketch.</desc>
    <defs></defs>
    <g id="00-Production" stroke="none" stroke-width="1" fill="none" fill-rule="evenodd">
        <g id="Mob-P-Gr-/-Re-01-Copy-2" transform="translate(0.000000, -402.000000)">
            <g id="Group-2" transform="translate(0.000000, 402.000000)">
                <path d="M170.758,27.166 L185.704,27.166 C188.336013,27.166 190.497992,26.5393396 192.19,25.286 C193.882008,24.0326604 194.728,21.9960141 194.728,19.176 C194.728,17.6093255 194.446003,16.3246717 193.882,15.322 C193.317997,14.3193283 192.566005,13.5360028 191.626,12.972 C190.685995,12.4079972 189.605006,12.0163344 188.383,11.797 C187.160994,11.5776656 185.892007,11.468 184.576,11.468 L170.758,11.468 L170.758,27.166 Z M156,0 L187.584,0 C190.780016,0 193.693987,0.28199718 196.326,0.846 C198.958013,1.41000282 201.213991,2.33432691 203.094,3.619 C204.974009,4.90367309 206.430995,6.61132268 207.465,8.742 C208.499005,10.8726773 209.016,13.504651 209.016,16.638 C209.016,20.0220169 208.248341,22.8419887 206.713,25.098 C205.177659,27.3540113 202.906015,29.2026595 199.898,30.644 C204.034021,31.8346726 207.120323,33.9183184 209.157,36.895 C211.193677,39.8716815 212.212,43.4593123 212.212,47.658 C212.212,51.0420169 211.554007,53.9716543 210.238,56.447 C208.921993,58.9223457 207.151678,60.9433255 204.927,62.51 C202.702322,64.0766745 200.164348,65.2359962 197.313,65.988 C194.461652,66.7400038 191.532015,67.116 188.524,67.116 L156,67.116 L156,0 Z M170.758,55.648 L186.55,55.648 C187.991341,55.648 189.369993,55.5070014 190.686,55.225 C192.002007,54.9429986 193.161328,54.4730033 194.164,53.815 C195.166672,53.1569967 195.965664,52.2640056 196.561,51.136 C197.156336,50.0079944 197.454,48.5666754 197.454,46.812 C197.454,43.3653161 196.482676,40.905674 194.54,39.433 C192.597324,37.960326 190.028016,37.224 186.832,37.224 L170.758,37.224 L170.758,55.648 Z M253.478,37.6 C252.85133,34.2159831 251.739008,31.6466754 250.141,29.892 C248.542992,28.1373246 246.114683,27.26 242.856,27.26 C240.725323,27.26 238.955007,27.6203297 237.545,28.341 C236.134993,29.0616703 235.007004,29.9546613 234.161,31.02 C233.314996,32.0853387 232.719668,33.2133274 232.375,34.404 C232.030332,35.5946726 231.826667,36.6599953 231.764,37.6 L253.478,37.6 Z M231.764,46.06 C231.952001,50.3840216 233.048657,53.5173236 235.054,55.46 C237.059343,57.4026764 239.941981,58.374 243.702,58.374 C246.39668,58.374 248.715324,57.7003401 250.658,56.353 C252.600676,55.0056599 253.791331,53.5800075 254.23,52.076 L265.98,52.076 C264.099991,57.9040291 261.217353,62.0713208 257.332,64.578 C253.446647,67.0846792 248.746694,68.338 243.232,68.338 C239.409314,68.338 235.962682,67.7270061 232.892,66.505 C229.821318,65.2829939 227.220677,63.5440113 225.09,61.288 C222.959323,59.0319887 221.314339,56.337349 220.155,53.204 C218.995661,50.070651 218.416,46.6240188 218.416,42.864 C218.416,39.2293152 219.011327,35.845349 220.202,32.712 C221.392673,29.578651 223.084656,26.8683448 225.278,24.581 C227.471344,22.2936552 230.087651,20.4920066 233.127,19.176 C236.166349,17.8599934 239.534648,17.202 243.232,17.202 C247.368021,17.202 250.971318,18.000992 254.042,19.599 C257.112682,21.197008 259.63499,23.3433199 261.609,26.038 C263.58301,28.7326801 265.008662,31.8033161 265.886,35.25 C266.763338,38.6966839 267.076668,42.2999812 266.826,46.06 L231.764,46.06 Z M274.722,18.518 L274.722,67.116 L288.07,67.116 L288.07,41.642 C288.07,36.6913086 288.884659,33.1350108 290.514,30.973 C292.143341,28.8109892 294.775315,27.73 298.41,27.73 C301.606016,27.73 303.83066,28.7169901 305.084,30.691 C306.33734,32.6650099 306.964,35.6573133 306.964,39.668 L306.964,67.116 L320.312,67.116 L320.312,37.224 C320.312,34.215985 320.045669,31.4743457 319.513,28.999 C318.980331,26.5236543 318.056007,24.4243419 316.74,22.701 C315.423993,20.9776581 313.622345,19.6303382 311.335,18.659 C309.047655,17.6876618 306.118018,17.202 302.546,17.202 C299.725986,17.202 296.96868,17.8443269 294.274,19.129 C291.57932,20.4136731 289.386008,22.4659859 287.694,25.286 L287.412,25.286 L287.412,18.518 L274.722,18.518 Z" fill="#E0E0E0"></path>
                <path d="M0,50 L0,117.116 L50.948,117.116 L50.948,104.708 L14.758,104.708 L14.758,88.258 L47.282,88.258 L47.282,76.79 L14.758,76.79 L14.758,62.408 L50.196,62.408 L50.196,50 L0,50 Z M59.878,50 L59.878,117.116 L73.226,117.116 L73.226,50 L59.878,50 Z M108.288,108.374 C110.481344,108.374 112.314326,107.935338 113.787,107.058 C115.259674,106.180662 116.450329,105.037007 117.359,103.627 C118.267671,102.216993 118.909998,100.572009 119.286,98.692 C119.662002,96.8119906 119.85,94.9006764 119.85,92.958 C119.85,91.0153236 119.646335,89.1040094 119.239,87.224 C118.831665,85.3439906 118.158005,83.667674 117.218,82.195 C116.277995,80.722326 115.071674,79.5316712 113.599,78.623 C112.126326,77.7143288 110.324677,77.26 108.194,77.26 C106.000656,77.26 104.167674,77.7143288 102.695,78.623 C101.222326,79.5316712 100.031671,80.7066595 99.123,82.148 C98.2143288,83.5893405 97.5720019,85.2499906 97.196,87.13 C96.8199981,89.0100094 96.632,90.9526566 96.632,92.958 C96.632,94.9006764 96.8356646,96.8119906 97.243,98.692 C97.6503354,100.572009 98.3083288,102.216993 99.217,103.627 C100.125671,105.037007 101.331992,106.180662 102.836,107.058 C104.340008,107.935338 106.157323,108.374 108.288,108.374 Z M83.754,68.518 L96.444,68.518 L96.444,74.722 L96.632,74.722 C98.2613415,72.0899868 100.329321,70.1786726 102.836,68.988 C105.342679,67.7973274 108.099985,67.202 111.108,67.202 C114.930686,67.202 118.220653,67.9226595 120.978,69.364 C123.735347,70.8053405 126.022658,72.7166548 127.84,75.098 C129.657342,77.4793452 131.004662,80.2523175 131.882,83.417 C132.759338,86.5816825 133.198,89.8873161 133.198,93.334 C133.198,96.592683 132.759338,99.725985 131.882,102.734 C131.004662,105.742015 129.673009,108.405322 127.887,110.724 C126.100991,113.042678 123.876347,114.891326 121.213,116.27 C118.549653,117.648674 115.432018,118.338 111.86,118.338 C108.851985,118.338 106.079013,117.727006 103.541,116.505 C101.002987,115.282994 98.9193415,113.481345 97.29,111.1 L97.102,111.1 L97.102,134.13 L83.754,134.13 L83.754,68.518 Z M141.188,50 L141.188,117.116 L154.536,117.116 L154.536,91.642 C154.536,86.6913086 155.350659,83.1350108 156.98,80.973 C158.609341,78.8109892 161.241315,77.73 164.876,77.73 C168.072016,77.73 170.29666,78.7169901 171.55,80.691 C172.80334,82.6650099 173.43,85.6573133 173.43,89.668 L173.43,117.116 L186.778,117.116 L186.778,87.224 C186.778,84.215985 186.511669,81.4743457 185.979,78.999 C185.446331,76.5236543 184.522007,74.4243419 183.206,72.701 C181.889993,70.9776581 180.088345,69.6303382 177.801,68.659 C175.513655,67.6876618 172.584018,67.202 169.012,67.202 C166.505321,67.202 163.936013,67.8443269 161.304,69.129 C158.671987,70.4136731 156.510008,72.4659859 154.818,75.286 L154.536,75.286 L154.536,50 L141.188,50 Z M210.654,60.998 L210.654,50 L197.306,50 L197.306,60.998 L210.654,60.998 Z M197.306,68.518 L197.306,117.116 L210.654,117.116 L210.654,68.518 L197.306,68.518 Z M221.182,68.518 L221.182,117.116 L234.53,117.116 L234.53,91.642 C234.53,86.6913086 235.344659,83.1350108 236.974,80.973 C238.603341,78.8109892 241.235315,77.73 244.87,77.73 C248.066016,77.73 250.29066,78.7169901 251.544,80.691 C252.79734,82.6650099 253.424,85.6573133 253.424,89.668 L253.424,117.116 L266.772,117.116 L266.772,87.224 C266.772,84.215985 266.505669,81.4743457 265.973,78.999 C265.440331,76.5236543 264.516007,74.4243419 263.2,72.701 C261.883993,70.9776581 260.082345,69.6303382 257.795,68.659 C255.507655,67.6876618 252.578018,67.202 249.006,67.202 C246.185986,67.202 243.42868,67.8443269 240.734,69.129 C238.03932,70.4136731 235.846008,72.4659859 234.154,75.286 L233.872,75.286 L233.872,68.518 L221.182,68.518 Z M276.83,85.72 L276.83,97.188 L305.124,97.188 L305.124,85.72 L276.83,85.72 Z" stroke="#E0E0E0"></path>
                <path d="M12.69,149.376 L0,149.376 C0.12533396,152.634683 0.86165993,155.344989 2.209,157.507 C3.55634007,159.669011 5.27965617,161.407993 7.379,162.724 C9.47834383,164.040007 11.8753199,164.979997 14.57,165.544 C17.2646801,166.108003 20.0219859,166.39 22.842,166.39 C25.5993471,166.39 28.3096534,166.123669 30.973,165.591 C33.6363467,165.058331 36.0019897,164.134007 38.07,162.818 C40.1380103,161.501993 41.8143269,159.763011 43.099,157.601 C44.3836731,155.438989 45.026,152.760016 45.026,149.564 C45.026,147.307989 44.5873377,145.412341 43.71,143.877 C42.8326623,142.341659 41.6733405,141.057005 40.232,140.023 C38.7906595,138.988995 37.1456759,138.15867 35.297,137.532 C33.4483241,136.90533 31.5526764,136.372669 29.61,135.934 C27.7299906,135.495331 25.8813424,135.088002 24.064,134.712 C22.2466576,134.335998 20.6330071,133.913002 19.223,133.443 C17.812993,132.972998 16.6693377,132.362004 15.792,131.61 C14.9146623,130.857996 14.476,129.886673 14.476,128.696 C14.476,127.693328 14.7266642,126.894336 15.228,126.299 C15.7293358,125.703664 16.3403297,125.249335 17.061,124.936 C17.7816703,124.622665 18.5806623,124.419 19.458,124.325 C20.3353377,124.231 21.1499962,124.184 21.902,124.184 C24.2833452,124.184 26.3513246,124.638329 28.106,125.547 C29.8606754,126.455671 30.8319991,128.194654 31.02,130.764 L43.71,130.764 C43.4593321,127.755985 42.6916731,125.26501 41.407,123.291 C40.1223269,121.31699 38.5086764,119.734673 36.566,118.544 C34.6233236,117.353327 32.4143457,116.507336 29.939,116.006 C27.4636543,115.504664 24.9100132,115.254 22.278,115.254 C19.6459868,115.254 17.0766792,115.488998 14.57,115.959 C12.0633208,116.429002 9.80734336,117.243661 7.802,118.403 C5.79665664,119.562339 4.18300611,121.144657 2.961,123.15 C1.73899389,125.155343 1.128,127.724651 1.128,130.858 C1.128,132.988677 1.56666228,134.790326 2.444,136.263 C3.32133772,137.735674 4.48065946,138.957662 5.922,139.929 C7.36334054,140.900338 9.00832409,141.683664 10.857,142.279 C12.7056759,142.874336 14.6013236,143.391331 16.544,143.83 C21.3066905,144.832672 25.0196534,145.835328 27.683,146.838 C30.3463467,147.840672 31.678,149.344657 31.678,151.35 C31.678,152.540673 31.3960028,153.527663 30.832,154.311 C30.2679972,155.094337 29.5630042,155.720998 28.717,156.191 C27.8709958,156.661002 26.9310052,157.005666 25.897,157.225 C24.8629948,157.444334 23.8760047,157.554 22.936,157.554 C21.6199934,157.554 20.3510061,157.397335 19.129,157.084 C17.9069939,156.770665 16.8260047,156.285003 15.886,155.627 C14.9459953,154.968997 14.1783363,154.123005 13.583,153.089 C12.9876637,152.054995 12.69,150.817341 12.69,149.376 Z M69.748,116.57 L69.748,102 L56.4,102 L56.4,116.57 L48.316,116.57 L48.316,125.5 L56.4,125.5 L56.4,154.17 C56.4,156.614012 56.8073293,158.587992 57.622,160.092 C58.4366707,161.596008 59.5489929,162.755329 60.959,163.57 C62.3690071,164.384671 63.9983241,164.932999 65.847,165.215 C67.6956759,165.497001 69.6539897,165.638 71.722,165.638 C73.0380066,165.638 74.3853264,165.606667 75.764,165.544 C77.1426736,165.481333 78.3959944,165.356001 79.524,165.168 L79.524,154.828 C78.8973302,154.953334 78.2393368,155.047333 77.55,155.11 C76.8606632,155.172667 76.1400038,155.204 75.388,155.204 C73.1319887,155.204 71.6280038,154.828004 70.876,154.076 C70.1239962,153.323996 69.748,151.820011 69.748,149.564 L69.748,125.5 L79.524,125.5 L79.524,116.57 L69.748,116.57 Z M97.76,140.916 C97.76,142.858676 97.9479981,144.754324 98.324,146.603 C98.7000019,148.451676 99.3423288,150.112326 100.251,151.585 C101.159671,153.057674 102.365992,154.232662 103.87,155.11 C105.374008,155.987338 107.253989,156.426 109.51,156.426 C111.766011,156.426 113.661659,155.987338 115.197,155.11 C116.732341,154.232662 117.954329,153.057674 118.863,151.585 C119.771671,150.112326 120.413998,148.451676 120.79,146.603 C121.166002,144.754324 121.354,142.858676 121.354,140.916 C121.354,138.973324 121.166002,137.062009 120.79,135.182 C120.413998,133.301991 119.771671,131.641341 118.863,130.2 C117.954329,128.758659 116.732341,127.583671 115.197,126.675 C113.661659,125.766329 111.766011,125.312 109.51,125.312 C107.253989,125.312 105.374008,125.766329 103.87,126.675 C102.365992,127.583671 101.159671,128.758659 100.251,130.2 C99.3423288,131.641341 98.7000019,133.301991 98.324,135.182 C97.9479981,137.062009 97.76,138.973324 97.76,140.916 Z M84.412,140.916 C84.412,137.030647 85.0073274,133.505682 86.198,130.341 C87.3886726,127.176318 89.0806557,124.481678 91.274,122.257 C93.4673443,120.032322 96.099318,118.309006 99.17,117.087 C102.240682,115.864994 105.687314,115.254 109.51,115.254 C113.332686,115.254 116.794984,115.864994 119.897,117.087 C122.999016,118.309006 125.646656,120.032322 127.84,122.257 C130.033344,124.481678 131.725327,127.176318 132.916,130.341 C134.106673,133.505682 134.702,137.030647 134.702,140.916 C134.702,144.801353 134.106673,148.310651 132.916,151.444 C131.725327,154.577349 130.033344,157.256322 127.84,159.481 C125.646656,161.705678 122.999016,163.413327 119.897,164.604 C116.794984,165.794673 113.332686,166.39 109.51,166.39 C105.687314,166.39 102.240682,165.794673 99.17,164.604 C96.099318,163.413327 93.4673443,161.705678 91.274,159.481 C89.0806557,157.256322 87.3886726,154.577349 86.198,151.444 C85.0073274,148.310651 84.412,144.801353 84.412,140.916 Z M143.35,116.57 L143.35,165.168 L156.698,165.168 L156.698,139.694 C156.698,134.743309 157.512659,131.187011 159.142,129.025 C160.771341,126.862989 163.403315,125.782 167.038,125.782 C170.234016,125.782 172.45866,126.76899 173.712,128.743 C174.96534,130.71701 175.592,133.709313 175.592,137.72 L175.592,165.168 L188.94,165.168 L188.94,135.276 C188.94,132.267985 188.673669,129.526346 188.141,127.051 C187.608331,124.575654 186.684007,122.476342 185.368,120.753 C184.051993,119.029658 182.250345,117.682338 179.963,116.711 C177.675655,115.739662 174.746018,115.254 171.174,115.254 C168.353986,115.254 165.59668,115.896327 162.902,117.181 C160.20732,118.465673 158.014008,120.517986 156.322,123.338 L156.04,123.338 L156.04,116.57 L143.35,116.57 Z M231.804,135.652 C231.17733,132.267983 230.065008,129.698675 228.467,127.944 C226.868992,126.189325 224.440683,125.312 221.182,125.312 C219.051323,125.312 217.281007,125.67233 215.871,126.393 C214.460993,127.11367 213.333004,128.006661 212.487,129.072 C211.640996,130.137339 211.045668,131.265327 210.701,132.456 C210.356332,133.646673 210.152667,134.711995 210.09,135.652 L231.804,135.652 Z M210.09,144.112 C210.278001,148.436022 211.374657,151.569324 213.38,153.512 C215.385343,155.454676 218.267981,156.426 222.028,156.426 C224.72268,156.426 227.041324,155.75234 228.984,154.405 C230.926676,153.05766 232.117331,151.632008 232.556,150.128 L244.306,150.128 C242.425991,155.956029 239.543353,160.123321 235.658,162.63 C231.772647,165.136679 227.072694,166.39 221.558,166.39 C217.735314,166.39 214.288682,165.779006 211.218,164.557 C208.147318,163.334994 205.546677,161.596011 203.416,159.34 C201.285323,157.083989 199.640339,154.389349 198.481,151.256 C197.321661,148.122651 196.742,144.676019 196.742,140.916 C196.742,137.281315 197.337327,133.897349 198.528,130.764 C199.718673,127.630651 201.410656,124.920345 203.604,122.633 C205.797344,120.345655 208.413651,118.544007 211.453,117.228 C214.492349,115.911993 217.860648,115.254 221.558,115.254 C225.694021,115.254 229.297318,116.052992 232.368,117.651 C235.438682,119.249008 237.96099,121.39532 239.935,124.09 C241.90901,126.78468 243.334662,129.855316 244.212,133.302 C245.089338,136.748684 245.402668,140.351981 245.152,144.112 L210.09,144.112 Z" fill="#E0E0E0"></path>
            </g>
        </g>
    </g>
</svg>

<svg width="320" height="166" viewBox="0 0 320 166" xmlns="http://www.w3.org/2000/svg"><title>Group 2</title><g fill="none" fill-rule="evenodd"><path d="M170.758 27.166h14.946c2.632 0 4.794-.627 6.486-1.88 1.692-1.253 2.538-3.29 2.538-6.11 0-1.567-.282-2.851-.846-3.854-.564-1.003-1.316-1.786-2.256-2.35-.94-.564-2.021-.956-3.243-1.175a21.516 21.516 0 0 0-3.807-.329h-13.818v15.698zM156 0h31.584c3.196 0 6.11.282 8.742.846 2.632.564 4.888 1.488 6.768 2.773 1.88 1.285 3.337 2.992 4.371 5.123 1.034 2.13 1.551 4.763 1.551 7.896 0 3.384-.768 6.204-2.303 8.46-1.535 2.256-3.807 4.105-6.815 5.546 4.136 1.19 7.222 3.274 9.259 6.251 2.037 2.977 3.055 6.564 3.055 10.763 0 3.384-.658 6.314-1.974 8.789-1.316 2.475-3.086 4.496-5.311 6.063-2.225 1.567-4.763 2.726-7.614 3.478a34.319 34.319 0 0 1-8.789 1.128H156V0zm14.758 55.648h15.792c1.441 0 2.82-.141 4.136-.423 1.316-.282 2.475-.752 3.478-1.41 1.003-.658 1.802-1.551 2.397-2.679.595-1.128.893-2.57.893-4.324 0-3.447-.971-5.906-2.914-7.379-1.943-1.473-4.512-2.209-7.708-2.209h-16.074v18.424zm82.72-18.048c-.627-3.384-1.739-5.953-3.337-7.708s-4.026-2.632-7.285-2.632c-2.13 0-3.901.36-5.311 1.081-1.41.72-2.538 1.614-3.384 2.679-.846 1.065-1.441 2.193-1.786 3.384-.345 1.19-.548 2.256-.611 3.196h21.714zm-21.714 8.46c.188 4.324 1.285 7.457 3.29 9.4 2.005 1.943 4.888 2.914 8.648 2.914 2.695 0 5.013-.674 6.956-2.021 1.943-1.347 3.133-2.773 3.572-4.277h11.75c-1.88 5.828-4.763 9.995-8.648 12.502-3.885 2.507-8.585 3.76-14.1 3.76-3.823 0-7.27-.611-10.34-1.833-3.07-1.222-5.671-2.961-7.802-5.217-2.13-2.256-3.776-4.95-4.935-8.084-1.16-3.133-1.739-6.58-1.739-10.34 0-3.635.595-7.019 1.786-10.152 1.19-3.133 2.883-5.844 5.076-8.131 2.193-2.287 4.81-4.089 7.849-5.405 3.04-1.316 6.408-1.974 10.105-1.974 4.136 0 7.74.799 10.81 2.397 3.07 1.598 5.593 3.744 7.567 6.439 1.974 2.695 3.4 5.765 4.277 9.212.877 3.447 1.19 7.05.94 10.81h-35.062zm42.958-27.542v48.598h13.348V41.642c0-4.95.815-8.507 2.444-10.669 1.63-2.162 4.261-3.243 7.896-3.243 3.196 0 5.42.987 6.674 2.961 1.253 1.974 1.88 4.966 1.88 8.977v27.448h13.348V37.224c0-3.008-.266-5.75-.799-8.225-.533-2.475-1.457-4.575-2.773-6.298-1.316-1.723-3.118-3.07-5.405-4.042-2.287-.971-5.217-1.457-8.789-1.457-2.82 0-5.577.642-8.272 1.927-2.695 1.285-4.888 3.337-6.58 6.157h-.282v-6.768h-12.69z" fill="#E0E0E0"/><path d="M0 50v67.116h50.948v-12.408h-36.19v-16.45h32.524V76.79H14.758V62.408h35.438V50H0zm59.878 0v67.116h13.348V50H59.878zm48.41 58.374c2.193 0 4.026-.439 5.499-1.316a10.698 10.698 0 0 0 3.572-3.431c.909-1.41 1.551-3.055 1.927-4.935.376-1.88.564-3.791.564-5.734a27 27 0 0 0-.611-5.734c-.407-1.88-1.081-3.556-2.021-5.029a11.258 11.258 0 0 0-3.619-3.572c-1.473-.909-3.274-1.363-5.405-1.363-2.193 0-4.026.454-5.499 1.363a10.973 10.973 0 0 0-3.572 3.525c-.909 1.441-1.551 3.102-1.927 4.982a29.65 29.65 0 0 0-.564 5.828 27 27 0 0 0 .611 5.734c.407 1.88 1.065 3.525 1.974 4.935.909 1.41 2.115 2.554 3.619 3.431 1.504.877 3.321 1.316 5.452 1.316zM83.754 68.518h12.69v6.204h.188c1.63-2.632 3.697-4.543 6.204-5.734 2.507-1.19 5.264-1.786 8.272-1.786 3.823 0 7.113.72 9.87 2.162 2.757 1.441 5.045 3.353 6.862 5.734 1.817 2.381 3.165 5.154 4.042 8.319.877 3.165 1.316 6.47 1.316 9.917 0 3.259-.439 6.392-1.316 9.4s-2.209 5.671-3.995 7.99-4.01 4.167-6.674 5.546c-2.663 1.379-5.781 2.068-9.353 2.068-3.008 0-5.781-.611-8.319-1.833-2.538-1.222-4.622-3.024-6.251-5.405h-.188v23.03H83.754V68.518zM141.188 50v67.116h13.348V91.642c0-4.95.815-8.507 2.444-10.669 1.63-2.162 4.261-3.243 7.896-3.243 3.196 0 5.42.987 6.674 2.961 1.253 1.974 1.88 4.966 1.88 8.977v27.448h13.348V87.224c0-3.008-.266-5.75-.799-8.225-.533-2.475-1.457-4.575-2.773-6.298-1.316-1.723-3.118-3.07-5.405-4.042-2.287-.971-5.217-1.457-8.789-1.457-2.507 0-5.076.642-7.708 1.927-2.632 1.285-4.794 3.337-6.486 6.157h-.282V50h-13.348zm69.466 10.998V50h-13.348v10.998h13.348zm-13.348 7.52v48.598h13.348V68.518h-13.348zm23.876 0v48.598h13.348V91.642c0-4.95.815-8.507 2.444-10.669 1.63-2.162 4.261-3.243 7.896-3.243 3.196 0 5.42.987 6.674 2.961 1.253 1.974 1.88 4.966 1.88 8.977v27.448h13.348V87.224c0-3.008-.266-5.75-.799-8.225-.533-2.475-1.457-4.575-2.773-6.298-1.316-1.723-3.118-3.07-5.405-4.042-2.287-.971-5.217-1.457-8.789-1.457-2.82 0-5.577.642-8.272 1.927-2.695 1.285-4.888 3.337-6.58 6.157h-.282v-6.768h-12.69zM276.83 85.72v11.468h28.294V85.72H276.83z" stroke="#E0E0E0"/><path d="M12.69 149.376H0c.125 3.259.862 5.969 2.209 8.131s3.07 3.901 5.17 5.217c2.1 1.316 4.496 2.256 7.191 2.82a40.27 40.27 0 0 0 8.272.846c2.757 0 5.468-.266 8.131-.799 2.663-.533 5.029-1.457 7.097-2.773 2.068-1.316 3.744-3.055 5.029-5.217 1.285-2.162 1.927-4.841 1.927-8.037 0-2.256-.439-4.152-1.316-5.687a12.046 12.046 0 0 0-3.478-3.854c-1.441-1.034-3.086-1.864-4.935-2.491a56.388 56.388 0 0 0-5.687-1.598c-1.88-.439-3.729-.846-5.546-1.222-1.817-.376-3.431-.799-4.841-1.269-1.41-.47-2.554-1.081-3.431-1.833-.877-.752-1.316-1.723-1.316-2.914 0-1.003.25-1.802.752-2.397a4.936 4.936 0 0 1 1.833-1.363 8.159 8.159 0 0 1 2.397-.611 23.04 23.04 0 0 1 2.444-.141c2.381 0 4.45.454 6.204 1.363 1.755.909 2.726 2.648 2.914 5.217h12.69c-.25-3.008-1.018-5.499-2.303-7.473-1.285-1.974-2.898-3.556-4.841-4.747-1.943-1.19-4.152-2.037-6.627-2.538a38.502 38.502 0 0 0-7.661-.752c-2.632 0-5.201.235-7.708.705-2.507.47-4.763 1.285-6.768 2.444a13.511 13.511 0 0 0-4.841 4.747c-1.222 2.005-1.833 4.575-1.833 7.708 0 2.13.439 3.932 1.316 5.405a11.427 11.427 0 0 0 3.478 3.666c1.441.971 3.086 1.755 4.935 2.35a65.885 65.885 0 0 0 5.687 1.551c4.763 1.003 8.476 2.005 11.139 3.008 2.663 1.003 3.995 2.507 3.995 4.512 0 1.19-.282 2.178-.846 2.961a6.411 6.411 0 0 1-2.115 1.88c-.846.47-1.786.815-2.82 1.034-1.034.22-2.021.329-2.961.329-1.316 0-2.585-.157-3.807-.47-1.222-.313-2.303-.799-3.243-1.457a7.803 7.803 0 0 1-2.303-2.538c-.595-1.034-.893-2.272-.893-3.713zm57.058-32.806V102H56.4v14.57h-8.084v8.93H56.4v28.67c0 2.444.407 4.418 1.222 5.922.815 1.504 1.927 2.663 3.337 3.478 1.41.815 3.04 1.363 4.888 1.645a38.97 38.97 0 0 0 5.875.423c1.316 0 2.663-.031 4.042-.094a31.762 31.762 0 0 0 3.76-.376v-10.34a18.7 18.7 0 0 1-1.974.282c-.69.063-1.41.094-2.162.094-2.256 0-3.76-.376-4.512-1.128-.752-.752-1.128-2.256-1.128-4.512V125.5h9.776v-8.93h-9.776zm28.012 24.346c0 1.943.188 3.838.564 5.687.376 1.849 1.018 3.51 1.927 4.982a10.264 10.264 0 0 0 3.619 3.525c1.504.877 3.384 1.316 5.64 1.316s4.152-.439 5.687-1.316a10.146 10.146 0 0 0 3.666-3.525c.909-1.473 1.551-3.133 1.927-4.982.376-1.849.564-3.744.564-5.687s-.188-3.854-.564-5.734c-.376-1.88-1.018-3.54-1.927-4.982-.909-1.441-2.13-2.616-3.666-3.525-1.535-.909-3.431-1.363-5.687-1.363-2.256 0-4.136.454-5.64 1.363-1.504.909-2.71 2.084-3.619 3.525-.909 1.441-1.551 3.102-1.927 4.982a29.166 29.166 0 0 0-.564 5.734zm-13.348 0c0-3.885.595-7.41 1.786-10.575 1.19-3.165 2.883-5.86 5.076-8.084 2.193-2.225 4.825-3.948 7.896-5.17 3.07-1.222 6.517-1.833 10.34-1.833 3.823 0 7.285.611 10.387 1.833 3.102 1.222 5.75 2.945 7.943 5.17 2.193 2.225 3.885 4.92 5.076 8.084 1.19 3.165 1.786 6.69 1.786 10.575 0 3.885-.595 7.395-1.786 10.528-1.19 3.133-2.883 5.812-5.076 8.037-2.193 2.225-4.841 3.932-7.943 5.123-3.102 1.19-6.564 1.786-10.387 1.786-3.823 0-7.27-.595-10.34-1.786-3.07-1.19-5.703-2.898-7.896-5.123-2.193-2.225-3.885-4.904-5.076-8.037-1.19-3.133-1.786-6.643-1.786-10.528zm58.938-24.346v48.598h13.348v-25.474c0-4.95.815-8.507 2.444-10.669 1.63-2.162 4.261-3.243 7.896-3.243 3.196 0 5.42.987 6.674 2.961 1.253 1.974 1.88 4.966 1.88 8.977v27.448h13.348v-29.892c0-3.008-.266-5.75-.799-8.225-.533-2.475-1.457-4.575-2.773-6.298-1.316-1.723-3.118-3.07-5.405-4.042-2.287-.971-5.217-1.457-8.789-1.457-2.82 0-5.577.642-8.272 1.927-2.695 1.285-4.888 3.337-6.58 6.157h-.282v-6.768h-12.69zm88.454 19.082c-.627-3.384-1.739-5.953-3.337-7.708s-4.026-2.632-7.285-2.632c-2.13 0-3.901.36-5.311 1.081-1.41.72-2.538 1.614-3.384 2.679-.846 1.065-1.441 2.193-1.786 3.384-.345 1.19-.548 2.256-.611 3.196h21.714zm-21.714 8.46c.188 4.324 1.285 7.457 3.29 9.4 2.005 1.943 4.888 2.914 8.648 2.914 2.695 0 5.013-.674 6.956-2.021 1.943-1.347 3.133-2.773 3.572-4.277h11.75c-1.88 5.828-4.763 9.995-8.648 12.502-3.885 2.507-8.585 3.76-14.1 3.76-3.823 0-7.27-.611-10.34-1.833-3.07-1.222-5.671-2.961-7.802-5.217-2.13-2.256-3.776-4.95-4.935-8.084-1.16-3.133-1.739-6.58-1.739-10.34 0-3.635.595-7.019 1.786-10.152 1.19-3.133 2.883-5.844 5.076-8.131 2.193-2.287 4.81-4.089 7.849-5.405 3.04-1.316 6.408-1.974 10.105-1.974 4.136 0 7.74.799 10.81 2.397 3.07 1.598 5.593 3.744 7.567 6.439 1.974 2.695 3.4 5.765 4.277 9.212.877 3.447 1.19 7.05.94 10.81H210.09z" fill="#E0E0E0"/></g></svg>
